assets/img/fwdimg.svg

<svg xmlns="http://www.w3.org/2000/svg" xmlns:xlink="http://www.w3.org/1999/xlink" preserveAspectRatio="none"
    width="190" height="50">
    <defs>
        <path fill="#FFF" d="M190 50V0H0v50h190z" id="prefix__a" />
        <path
            d="M34.85 10.85V5.2h-5.6q-4.6 0-7.95 3.35-3.3 3.25-3.3 7.9h-5.65v5.6H18v22.5h5.6v-22.5h5.65v-5.6H23.6q0-2.35 1.65-3.95 1.7-1.65 4-1.65h5.6m33.7 5.6H62.9V31.9q0 2.95-.8 5-.8 2-2 2t-1.95-2q-.85-2.05-.85-5V16.45h-5.6V31.9q0 2.95-.85 5-.8 2.1-1.95 2.1-1.2 0-2-2.1-.8-2.05-.8-5V16.45h-5.65V31.9q0 5.25 2.45 8.95 2.5 3.7 6 3.7 2.95 0 5.25-5.65h.7q2.3 5.65 5.25 5.65 3.5 0 5.95-3.7 2.5-3.7 2.5-8.95V16.45m28.1 0h-11.2q-4.65 0-7.9 3.3-3.35 3.35-3.35 7.95v5.6q0 4.6 3.35 7.9 3.25 3.35 7.9 3.35h16.85V5.2h-5.65v11.25m-11.2 5.6h11.2V38.9h-11.2q-2.3 0-3.95-1.65-1.65-1.65-1.65-3.95v-5.6q0-2.3 1.65-4 1.65-1.65 3.95-1.65z"
            id="prefix__b" />
        <path d="M144.4 5.15v39.5l19.75-19.75L144.4 5.15m39.45 19.75l-19.7-19.75v39.5l19.7-19.75z" id="prefix__c" />
    </defs>
    <use xlink:href="#prefix__a" />
    <use xlink:href="#prefix__b" transform="translate(-7.35 .15)" />
    <use xlink:href="#prefix__c" transform="translate(1.2 .1)" />
</svg>

<svg xmlns="http://www.w3.org/2000/svg" version="1.1" xmlns:xlink="http://www.w3.org/1999/xlink" preserveAspectRatio="none" x="0px" y="0px" width="190px" height="50px" viewBox="0 0 190 50">
<defs>
<g id="Layer2_0_FILL">
<path fill="#FFFFFF" stroke="none" d="
M 190 50
L 190 0 0 0 0 50 190 50 Z"/>
</g>

<g id="Layer1_0_FILL">
<path fill="#000000" stroke="none" d="
M 34.85 10.85
L 34.85 5.2 29.25 5.2
Q 24.65 5.2 21.3 8.55 18 11.8 18 16.45
L 12.35 16.45 12.35 22.05 18 22.05 18 44.55 23.6 44.55 23.6 22.05 29.25 22.05 29.25 16.45 23.6 16.45
Q 23.6 14.1 25.25 12.5 26.95 10.85 29.25 10.85
L 34.85 10.85
M 68.55 16.45
L 62.9 16.45 62.9 31.9
Q 62.9 34.85 62.1 36.9 61.3 38.9 60.1 38.9 58.9 38.9 58.15 36.9 57.3 34.85 57.3 31.9
L 57.3 16.45 51.7 16.45 51.7 31.9
Q 51.7 34.85 50.85 36.9 50.05 39 48.9 39 47.7 39 46.9 36.9 46.1 34.85 46.1 31.9
L 46.1 16.45 40.45 16.45 40.45 31.9
Q 40.45 37.15 42.9 40.85 45.4 44.55 48.9 44.55 51.85 44.55 54.15 38.9
L 54.85 38.9
Q 57.15 44.55 60.1 44.55 63.6 44.55 66.05 40.85 68.55 37.15 68.55 31.9
L 68.55 16.45
M 96.65 16.45
L 85.45 16.45
Q 80.8 16.45 77.55 19.75 74.2 23.1 74.2 27.7
L 74.2 33.3
Q 74.2 37.9 77.55 41.2 80.8 44.55 85.45 44.55
L 102.3 44.55 102.3 5.2 96.65 5.2 96.65 16.45
M 85.45 22.05
L 96.65 22.05 96.65 38.9 85.45 38.9
Q 83.15 38.9 81.5 37.25 79.85 35.6 79.85 33.3
L 79.85 27.7
Q 79.85 25.4 81.5 23.7 83.15 22.05 85.45 22.05 Z"/>
</g>

<g id="Layer0_0_FILL">
<path fill="#000000" stroke="none" d="
M 144.4 5.15
L 144.4 44.65 164.15 24.9 144.4 5.15
M 183.85 24.9
L 164.15 5.15 164.15 24.9 164.15 44.65 183.85 24.9 Z"/>
</g>
</defs>

<g transform="matrix( 1, 0, 0, 1, 0,0) ">
<use xlink:href="#Layer2_0_FILL"/>
</g>

<g transform="matrix( 1, 0, 0, 1, -7.35,0.15) ">
<use xlink:href="#Layer1_0_FILL"/>
</g>

<g transform="matrix( 1, 0, 0, 1, 1.2,0.1) ">
<use xlink:href="#Layer0_0_FILL"/>
</g>
</svg>
